X:1
T:Title
%%score ( 1 2 ) { 3 | 4 }
L:1/8
Q:1/4=83
M:6/8
K:Ab
V:1 treble nm="Grand Piano, Soprano"
V:2 treble 
V:3 bass nm="Choir Pad, In Fancy We Picture That Land"
V:4 bass 
V:1
 [CA][Ec]>[=D_c] [E=c][CA][_DB] | [Ec][Fd][DF] [FB] [EA]2 | E/E<[DE][DE]/ [DF][DE]>[DE] | %3
w: By~George~W.~Bacon * * * * *|||
 [DF] [CE]2- [CE]2- [CE]/ z/ | [CA][Ec]>[=D_c] [E=c][Ee][Ec] | [EA][FA][GB] [Ac] [Gd]2 | %6
w: |||
 [DF]/[DF]<[CE][CA]/ [Ec][DB]<[DF] | [DG] [CA]2- [CA]2- [CA]/ z/ | [Ae][Ae]>[Ae] [Af][Ae][Ac] | %9
w: |||
 A[Ac]>[AB] [EA] [Ac]2 | [Ae]/[Ae]/[Af][Ae] [Ac]A>[GB] | [Ac] B2- [FB-][G-B]>G | %12
w: |||
 [Ae][Ae]>[Ae] [Af][Ae][Ac] | A[Ac]>[AB] [EA] [Ac]2 | [Ae]/[Ae]/[Af][Ae] A[Ac]<[Ac] | z A2- A3- | %16
w: ||||
 A6 |] %17
w: |
V:2
 x6 | x6 | x6 | x6 | x6 | x6 | x6 | x6 | x6 | x6 | x6 | z G2 z3 | x6 | x6 | x6 | [GB] E2 F E2- | %16
 E6 |] %17
V:3
 A,A,>A, A,A,A, | A,A,A, D C2 | A,/A,<G,G,/ G,G,>G, | G, A,2- A,2- A,/ z/ | %4
 A,A,>A, A,[K:treble]CC | CCE E F2 | A,/A,<A,A,/ A,G,<G, | B, A,2- A,2- A,/ z/ | CC>C CCE | %9
 CE>D C E2 | C/C/CC EE>E | E E2 =D E2 | B,C>C CCE | CE>D C E2 | C/C/CC CE<E | D C2 D C2- | C6 |] %17
V:4
 A,,A,,>A,, A,,A,,A,, | A,,D,D, D, A,,2 | C,/C,<E,E,/ E,E,>E, | E, A,,2- A,,2- A,,/ z/ | %4
 A,,A,,>A,, A,,A,A, | A,F,E, A, D,2 | D,/D,<E,E,/ E,E,<E, | E, A,,2- A,,2- A,,/ z/ | %8
 A,A,>A, A,A,A, | A,A,>A, A, A,2 | A,/A,/A,A, A,C,>E, | A, E,2 B,, E,2 | E,A,>A, A,A,A, | %13
 A,A,>A, A, A,2 | A,/A,/A,A, F,E,<E, | E, A,,2- A,,3- | A,,6 |] %17

